polaris-icons/icons/newicons/PinUnfilledMajor.svg

<svg width="20" height="20" viewBox="0 0 20 20" fill="none" xmlns="http://www.w3.org/2000/svg">
<path fill-rule="evenodd" clip-rule="evenodd" d="M7.06673 6.19973C6.40473 5.75368 6 5.15638 6 4.5C6 3.11929 7.79086 2 10 2C12.2091 2 14 3.11929 14 4.5C14 5.15638 13.5953 5.75368 12.9333 6.19973L13.6971 9.63703C15.0991 10.1862 16 11.0405 16 12C16 13.5299 13.7097 14.7923 10.75 14.9768V17.25C10.75 17.6642 10.4142 18 10 18C9.58579 18 9.25 17.6642 9.25 17.25V14.9768C6.29027 14.7923 4 13.5299 4 12C4 11.0405 4.90092 10.1862 6.30288 9.63703L7.06673 6.19973ZM12.091 4.95851C12.0726 4.97086 12.0534 4.98329 12.0334 4.99577C11.5834 5.27702 10.8684 5.5 10 5.5C9.13159 5.5 8.41657 5.27702 7.96657 4.99577C7.94663 4.98331 7.92746 4.97089 7.90906 4.95856L7.90491 4.95576C7.85368 4.92125 7.80847 4.88744 7.76868 4.85486C7.69839 4.79729 7.64471 4.74327 7.60471 4.69567C7.5813 4.66781 7.56268 4.64226 7.54818 4.61963C7.53633 4.60113 7.5274 4.58496 7.52066 4.57097C7.50257 4.53344 7.50032 4.51164 7.50004 4.50276C7.5 4.50149 7.5 4.50049 7.5 4.49974C7.49999 4.49194 7.49995 4.45131 7.55661 4.36758C7.61911 4.27523 7.74456 4.14299 7.96657 4.00423C8.41657 3.72298 9.13159 3.5 10 3.5C10.7599 3.5 11.4023 3.67072 11.8525 3.90182C11.9168 3.93483 11.9772 3.96907 12.0334 4.00423C12.2554 4.14299 12.3809 4.27523 12.4434 4.36758C12.454 4.38328 12.4626 4.39748 12.4697 4.41024C12.4988 4.46322 12.5 4.49139 12.5 4.49923C12.5 4.49951 12.5 4.499 12.5 4.49923C12.5 4.49949 12.5 4.50057 12.5 4.50092C12.5 4.50063 12.5 4.50115 12.5 4.50092M11.5323 6.81L12.4061 10.7423L13.15 11.0337C13.7215 11.2576 14.0994 11.5101 14.3114 11.7231C14.4137 11.8257 14.4617 11.9034 14.4828 11.9476C14.493 11.969 14.4969 11.9828 14.4985 11.9893C14.4999 11.9954 14.5 11.9984 14.5 12C14.5 12.0016 14.4999 12.0039 14.499 12.0082C14.4981 12.0126 14.4958 12.0218 14.4899 12.0365C14.4777 12.0661 14.4487 12.1216 14.3833 12.199C14.2465 12.3607 13.9897 12.5707 13.5718 12.7797C12.7352 13.198 11.4745 13.5 10 13.5C8.52552 13.5 7.26479 13.198 6.42818 12.7797C6.01029 12.5707 5.75353 12.3607 5.61672 12.199C5.55125 12.1216 5.52226 12.0661 5.51014 12.0365C5.50416 12.0218 5.50186 12.0126 5.50096 12.0082C5.5001 12.0039 5.5 12.0016 5.5 12C5.5 11.9984 5.50008 11.9954 5.50153 11.9893C5.50306 11.9828 5.50701 11.969 5.51723 11.9476C5.53826 11.9034 5.58635 11.8257 5.68859 11.7231C5.90063 11.5101 6.27846 11.2576 6.84996 11.0337L7.59385 10.7423L8.4677 6.81C8.93964 6.93243 9.45719 7 10 7C10.5428 7 11.0604 6.93243 11.5323 6.81Z" fill="black"/>
</svg>

<svg viewBox="0 0 20 20" fill="none" xmlns="http://www.w3.org/2000/svg"><path fill-rule="evenodd" clip-rule="evenodd" d="M7.067 6.2c-.662-.446-1.067-1.044-1.067-1.7 0-1.38 1.79-2.5 4-2.5s4 1.12 4 2.5c0 .656-.405 1.254-1.067 1.7l.764 3.437c1.402.55 2.303 1.403 2.303 2.363 0 1.53-2.29 2.792-5.25 2.977v2.273a.75.75 0 0 1-1.5 0v-2.273c-2.96-.185-5.25-1.447-5.25-2.977 0-.96.9-1.814 2.303-2.363l.764-3.437Zm5.024-1.241a2.064 2.064 0 0 1-.058.037c-.45.281-1.165.504-2.033.504-.868 0-1.583-.223-2.033-.504a2.15 2.15 0 0 1-.058-.037l-.004-.003a1.82 1.82 0 0 1-.136-.101 1.24 1.24 0 0 1-.164-.16.74.74 0 0 1-.084-.124.173.173 0 0 1-.021-.068v-.003c0-.008 0-.049.057-.132.062-.093.188-.225.41-.364.45-.281 1.165-.504 2.033-.504.76 0 1.402.17 1.852.402.065.033.125.067.181.102.222.139.348.271.41.364.011.015.02.03.027.042a.19.19 0 0 1 .03.09s0-.001 0 0c0 0 0 .001 0 0m-.968 2.31.874 3.932.744.292c.572.224.95.476 1.161.69.103.102.15.18.172.224a.218.218 0 0 1 .017.052l-.001.008a.169.169 0 0 1-.01.029.644.644 0 0 1-.106.162c-.136.162-.393.372-.811.58-.837.419-2.097.721-3.572.721-1.474 0-2.735-.302-3.572-.72-.418-.21-.674-.42-.811-.581a.64.64 0 0 1-.107-.162.164.164 0 0 1-.01-.037l.002-.01a.211.211 0 0 1 .015-.042.86.86 0 0 1 .172-.225c.212-.213.59-.465 1.161-.69l.744-.29.874-3.933c.472.122.99.19 1.532.19.543 0 1.06-.068 1.532-.19Z" fill="#5C5F62"/></svg>
